icons/road-grader-21.svg

<?xml version="1.0" encoding="UTF-8"?><svg id="symbol" xmlns="http://www.w3.org/2000/svg" viewBox="0 0 21 21"><defs><style>.cls-1{stroke-width:0px;}</style></defs><path class="cls-1" d="m19.94183,14c-.06757-.28601-.22504-.53668-.44183-.71588v-1.34271l-1.94141-1.94141h-4.99902l-.2113.21368.65173-5.21368h-5v2h-2v-1h-1v1.20001l-4,.79999v5l1,1h.05823c-.02252.09546-.05823.18616-.05823.28845v.42303c0,.71161.57684,1.28851,1.28845,1.28851h.4231c.71161,0,1.28845-.5769,1.28845-1.28851v-.42303c0-.10229-.03571-.19299-.05823-.28845h1.11646c-.02252.09546-.05823.18616-.05823.28845v.42303c0,.71161.57684,1.28851,1.28845,1.28851h.4231c.71161,0,1.28845-.5769,1.28845-1.28851v-.42303c0-.10229-.03571-.19299-.05823-.28845h2.4762l1.97754-2h3.33496l.76953.76953v.23047h-4.48828l-.00781,2h-1.00391v1h3v-1h-1.00391l.00391-1h3.05823c-.02252.09546-.05823.18616-.05823.28845v.42303c0,.10229.03571.19299.05823.28845h.00006c.13428.5683.62091,1.00006,1.23022,1.00006h.4231c.60925,0,1.09595-.43176,1.23022-1,.02252-.09546.05823-.18616.05823-.28845v-.4231c0-.10229-.03571-.19299-.05823-.28845Zm-8.82465-2h-2.11719v-6h2.86719l-.75,6Z"/></svg>

<svg xmlns="http://www.w3.org/2000/svg" viewBox="0 0 21 21"><path d="M19.942 14a1.323 1.323 0 0 0-.442-.716v-1.343L17.559 10h-5l-.21.214L13 5H8v2H6V6H5v1.2L1 8v5l1 1h.058c-.022.095-.058.186-.058.288v.423C2 15.423 2.577 16 3.288 16h.424C4.423 16 5 15.423 5 14.711v-.423c0-.102-.036-.193-.058-.288h1.116c-.022.095-.058.186-.058.288v.423C6 15.423 6.577 16 7.288 16h.424C8.423 16 9 15.423 9 14.711v-.423c0-.102-.036-.193-.058-.288h2.476l1.978-2h3.334l.77.77V13h-4.488l-.008 2H12v1h3v-1h-1.004L14 14h3.058c-.022.095-.058.186-.058.288v.423c0 .103.036.193.058.289.135.568.621 1 1.23 1h.424c.609 0 1.096-.432 1.23-1 .022-.095.058-.186.058-.288v-.424c0-.102-.036-.193-.058-.288zm-8.825-2H9V6h2.867l-.75 6z" stroke-width="0"/></svg>
